!!!!SEGMENT: pl-kk--kk-i-288--003_anonim--venit-caeli-nuntius.krn
!!!cenid: 16xx:1095
!!!COM: Anonim
!!!COM-rismID: pe30004985
!!!CDT:
!!!CNT:
!!!OTL: Venit caeli nuntius
!!!PDT:
!!!AGN: Sacred
!!!YEC: Copyright 2022 Narodowy Instytut Fryderyka Chopina (https://polishscores.org)
!!!YEM: License CC-BY-4.0 (https://creativecommons.org/licenses/by/4.0)
!!!SMS-siglum: PL-Kk
!!!SMS-shelfmark: Kk.I.288
!!!SMS-shelfwork: 003 W
!!!SMS-variant:
!!!SMS-altvar:
!!!NIFC-rismSourceID: 1001147282
!!!NIFC-rismChildID: 1001147286
!!!NIFC-islandoraID: pl-kk:5015
!!!URL-pdf-islandora: https://repozytorium.nifc.pl/islandora/object/pl-kk%3A5015/datastream/PDF/view
!!!URL-scan: https://polish.musicsources.pl/pl/lokalizacje/galeria/rekopisy/5906 @EN{Scan on Polish Music Sources Website} @PL{Skany w portalu Dziedzictwo Muzyki Polskiej w otwartym dostępie}
!!!IIIF:
!!!ONB-nifc: UWAGA: utwory w zbiorze: 1. Spiritus Domini, 2. Alleluia ave virgo Maria, 3. Venit caeli nuntius, 4. Factus est repente
!!!AIN: 1 alto 1 empty 2 tenor 1 vox
!!!key:
**kern	**text	**text	**kern	**text	**text	**kern	**text	**text	**kern	**text	**text	**kern	**text	**text
*part5	*	*	*part4	*	*	*part3	*	*	*part2	*	*	*part1	*	*
*staff5	*	*	*staff4	*	*	*staff3	*	*	*staff2	*	*	*staff1	*	*
*Iempty	*	*	*Itenor	*	*	*Itenor	*	*	*Ialto	*	*	*Ivox	*	*
*I"[Basso]	*	*	*I"[Tenore II]	*	*	*I"[Tenore I]	*	*	*I"[Alto]	*	*	*I"[Canto]	*	*
*I'[B]	*	*	*I'[T 2]	*	*	*I'[T 1]	*	*	*I'[A]	*	*	*I'[S]	*	*
*clefF4	*	*	*clefC4	*	*	*clefC4	*	*	*clefC3	*	*	*clefC1	*	*
*k[]	*	*	*k[]	*	*	*k[]	*	*	*k[]	*	*	*k[]	*	*
*g:	*	*	*g:	*	*	*g:	*	*	*g:	*	*	*g:	*	*
*M2/1	*	*	*M2/1	*	*	*M2/1	*	*	*M2/1	*	*	*M2/1	*	*
*met(C|)	*	*	*met(C)	*	*	*met(C)	*	*	*met(C)	*	*	*met(C)	*	*
*	*	*	*all\right	*	*	*all\right	*	*	*all\right	*	*	*all\right	*	*
=1-	=1-	=1-	=1-	=1-	=1-	=1-	=1-	=1-	=1-	=1-	=1-	=1-	=1-	=1-
!	!	!	!	!	!	!	!	!	!	!	!	!LO:TX:t=P:global:problem=oddech/cezura na różnej wysokości	!	!
1C	Ve-	De-	1C	Ve-	De-	1.c	Ve-	De-	1r	.	.	0g	Ve-	De-
!	!	!	!LO:TX:t=P:problem=kreska pseudotaktowa	!	!	!	!	!	!	!	!	!	!	!
1GG	-nit	-ſpon-	1D	-nit	-ſpon-	.	.	.	1d	Ve-	De-	.	.	.
*	*	*	*	*	*	*2\right	*	*	*	*	*	*	*	*
.	.	.	.	.	.	2B\	-nit	-ſpon-	.	.	.	.	.	.
=2-	=2-	=2-	=2-	=2-	=2-	=2-	=2-	=2-	=2-	=2-	=2-	=2-	=2-	=2-
*	*	*	*	*	*	*	*	*	*2\right	*	*	*	*	*
1D	cae-	-ſa-	1F	Cae-	-ſa-	1A	Cae-	-ſa-	2d\	-nit	-ſpon-	1a	-nit	-ſpon-
.	.	.	.	.	.	.	.	.	2.d\	Cae-	-ſa-	.	.	.
!	!	!	!LO:TX:t=P:problem=kreska pseudotaktowa	!	!	!	!	!	!	!	!	!	!	!
1GG	-li	.	1G	-li	-tam	2G/	-li	-tam	.	.	.	1b-X	Cae-	-ſa-
.	.	.	.	.	.	.	.	.	4c\	.	.	.	.	.
.	.	.	.	.	.	2.D/	Nun-	Jo-	4d\	.	.	.	.	.
.	.	.	.	.	.	.	.	.	4e\	.	.	.	.	.
=3-	=3-	=3-	=3-	=3-	=3-	=3-	=3-	=3-	=3-	=3-	=3-	=3-	=3-	=3-
*	*	*	*lig	*	*	*	*	*	*	*	*	*2\right	*	*
2.D/	nun-	-tam	1F	nun-	Jo-	.	.	.	2f\	-li	-tam	2a\	-li	-tam
.	.	.	.	.	.	4E/	.	.	.	.	.	.	.	.
.	.	.	.	.	.	4F/	-ti-	.	1d	Nun-	Jo-	2.a\	Nun-	Jo-
4C/	.	.	.	.	.	4G/	.	.	.	.	.	.	.	.
2AA/	.	.	1E	.	.	1A	-us	-ſeph	.	.	.	.	.	.
.	.	.	.	.	.	.	.	.	.	.	.	4g/	.	.
2C/	.	Jo-	.	.	.	.	.	.	2c/	-ti-	-seph	2e/	.	.
*	*	*	*Xlig	*	*	*	*	*	*	*	*	*	*	*
=4-	=4-	=4-	=4-	=4-	=4-	=4-	=4-	=4-	=4-	=4-	=4-	=4-	=4-	=4-
!LO:TX:a:t=P:problem=♭ above	!	!	!	!	!	!	!	!	!	!	!	!	!	!
2BB-X/	.	-seph	1D	.	.	1r	.	.	1d	-us	.	2f/	.	.
!	!	!	!	!	!	!	!	!	!	!	!	!LO:LB:g=original	!	!
2GG/	-ti-	.	.	.	.	.	.	.	.	.	.	2g/	.	.
1AA	-us	.	1C	-ti-	-ſeph	1.A	ve-	Vi-	2r	.	.	1e	.	.
.	.	.	.	.	.	.	.	.	2e\	ve-	vi-	.	.	.
=5-	=5-	=5-	=5-	=5-	=5-	=5-	=5-	=5-	=5-	=5-	=5-	=5-	=5-	=5-
!	!	!	!LO:TX:t=P:problem=kreska pseudotaktowa	!	!	!	!	!	!	!	!	!	!	!
2r	.	.	1D,<	-(us)	.	.	.	.	1f	-nit	-ro	4d/	.	.
.	.	.	.	.	.	.	.	.	.	.	.	4e/	.	.
1D	Ve-	Vi-	.	.	.	2A/	-nit	-ro	.	.	.	4f/	.	.
.	.	.	.	.	.	.	.	.	.	.	.	4g/	-ti-	.
.	.	.	1F	ve-	Vi-	2A/	miſ-	iu-	1d	miſ-	iu-	1a	-us	-seph
2D/	-nit	-ro	.	.	.	2A/	-sus	-ſto	.	.	.	.	.	.
=6-	=6-	=6-	=6-	=6-	=6-	=6-	=6-	=6-	=6-	=6-	=6-	=6-	=6-	=6-
1C	miſ-	.	1G	-nit	-ro	2.c\	Cae-	Fi-	1e	-sus	-ſto	1r	.	.
.	.	.	.	.	.	4B\	.	.	.	.	.	.	.	.
*	*	*	*	*	*	*	*	*	*lig	*	*	*	*	*
4F\	-suſ	iu-	1A	miſ-	ju-	4A/	.	.	1c	Cae-	fi-	2r	.	.
4E\	.	.	.	.	.	4G/	.	.	.	.	.	.	.	.
4D\	.	.	.	.	.	4F/	.	.	.	.	.	1f/	ve-	vi-
4C\	.	.	.	.	.	4E/	.	.	.	.	.	.	.	.
=7-	=7-	=7-	=7-	=7-	=7-	=7-	=7-	=7-	=7-	=7-	=7-	=7-	=7-	=7-
!	!	!	!LO:TX:t=P:problem=kreska pseudotaktowa	!	!	!	!	!	!	!	!	!	!	!
2BB-X/	Cae-	.	1B-X	-s(us)	-ſto	2D/	.	.	1.d	.	-de-	.	.	.
2GG/	-li-	-ſto	.	.	.	1G	.	.	.	.	.	2g/	-nit	-ro
*	*	*	*lig	*	*	*	*	*	*	*	*	*	*	*
1D,<	-tus	.	1A	Cae-	et	.	.	.	.	.	.	2a\	miſ-	iu-
*	*	*	*	*	*	*	*	*	*Xlig	*	*	*	*	*
.	.	.	.	.	.	2F/	.	.	2d\	-li-	-li	2a\	-sus	-ſto
=8-	=8-	=8-	=8-	=8-	=8-	=8-	=8-	=8-	=8-	=8-	=8-	=8-	=8-	=8-
*	*	*	*custos:F	*	*	*	*	*	*	*	*	*	*	*
1GG	.	et	1G	.	.	1G	-li-	-de-	1d	-tus	et	1b-X	Cae-	Fi-
*	*	*	*Xlig	*	*	*	*	*	*	*	*	*	*	*
!	!	!	!LO:LB:g=original	!	!	!	!	!	!	!	!	!	!	!
1D	ad	Fi-	1F	.	Cae-	1A	-tus	-li	1.f	ad	DE-	1a	.	.
=9-	=9-	=9-	=9-	=9-	=9-	=9-	=9-	=9-	=9-	=9-	=9-	=9-	=9-	=9-
2E\	Ma-	-de-	1G	-li-	-li	1r	.	.	.	.	.	2g/	.	.
2C/	-ri-	-li	.	.	.	.	.	.	2e\	Ma-	-o	2.cc\	.	.
!	!	!	!LO:TX:t=P:problem=kreska pseudotaktowa	!	!	!	!	!	!	!	!	!	!	!
1F	-a(m)	.	1A	-tus	.	1.c	ad	Fi-	2f\	-ri-	a-	.	.	.
.	.	.	.	.	.	.	.	.	.	.	.	4bny\	.	.
.	.	.	.	.	.	.	.	.	2c/	am	-ma-	2a\	.	.
=10-	=10-	=10-	=10-	=10-	=10-	=10-	=10-	=10-	=10-	=10-	=10-	=10-	=10-	=10-
*	*	*	*	*	*	*	*	*	*lig	*	*	*	*	*
2E\	Vir-	et	1C	ad	et	.	.	.	1e	Vir-	-bi-	1g	-li-	-de-
2C/	-gi-	De-	.	.	.	2c\	Ma-	-de-	.	.	.	.	.	.
!	!	!	!LO:TX:t=P:problem=kreska pseudotaktowa	!	!	!LO:LB:g=original	!	!	!	!	!	!	!	!
2.F\	-ne(m)	-o	1D	Ma-	De-	2A/	-ri-	-li	1d	-gi-	.	2f,</	-tus	-li
.	.	.	.	.	.	2F/	am	et	.	.	.	2a\	ad	et
4E\	.	.	.	.	.	.	.	.	.	.	.	.	.	.
*	*	*	*	*	*	*	*	*	*Xlig	*	*	*	*	*
=11-	=11-	=11-	=11-	=11-	=11-	=11-	=11-	=11-	=11-	=11-	=11-	=11-	=11-	=11-
!LO:TX:t=P:problem=t. 11 - wykreślny tekst 1. zwr.	!	!	!	!	!	!	!	!	!	!	!	!	!	!
1D	.	mul-	1F	-ri-	-o	2A\	ad	De-	1d	-nem	-li	2a\	Ma-	De-
.	.	.	.	.	.	2B\	.	-o	.	.	.	4g/	.	.
.	.	.	.	.	.	.	.	.	.	.	.	4f/	.	.
1C	.	-tu(m)	1G	-am	a-	2.c\	Ma-	a-	2r	.	.	4e/	.	-o
.	.	.	.	.	.	.	.	.	.	.	.	4f/	.	.
.	.	.	.	.	.	.	.	.	2G/	ad	et	4g/	.	.
.	.	.	.	.	.	4B\	-ri-	.	.	.	.	4e/	.	.
=12-	=12-	=12-	=12-	=12-	=12-	=12-	=12-	=12-	=12-	=12-	=12-	=12-	=12-	=12-
*lig	*	*	*lig	*	*	*	*	*	*	*	*	*	*	*
!LO:LB:g=original	!	!	!	!	!	!	!	!	!LO:LB:g=original	!	!	!	!	!
1D	Vir-	a-	1F	Vir-	-ma-	2A/	-am	.	2d\	Ma-	DE-	4f/	.	.
.	.	.	.	.	.	.	.	.	.	.	.	4g/	.	.
.	.	.	.	.	.	2D/	.	.	1d	-ri-	-o	4a\	.	.
.	.	.	.	.	.	.	.	.	.	.	.	4b\	-ri-	.
1AA	.	.	1E	.	.	2.A/	Vir-	.	.	.	.	2cc\	-am	a-
!	!	!	!	!	!	!	!	!	!	!	!	!LO:LB:g=original	!	!
.	.	.	.	.	.	.	.	.	2c/	-am	a-	1a\	Vir-	-ma-
.	.	.	.	.	.	4G/	.	.	.	.	.	.	.	.
*Xlig	*	*	*Xlig	*	*	*	*	*	*	*	*	*	*	*
=13-	=13-	=13-	=13-	=13-	=13-	=13-	=13-	=13-	=13-	=13-	=13-	=13-	=13-	=13-
*lig	*	*	*	*	*	*	*	*	*	*	*	*	*	*
1BBny	-gi-	-ma-	1D	-gi-	.	2F/	.	.	1d	Vir-	-ma-	.	.	.
.	.	.	.	.	.	2G/	-gi-	-ma-	.	.	.	2g\	-gi-	-bi-
1GG	.	-bi-	1C	-nem	-bi-	1E	.	-bi-	1e	-gi-	-bi-	0.a	-nem	-li
*Xlig	*	*	*	*	*	*	*	*	*	*	*	*	*	*
=14-	=14-	=14-	=14-	=14-	=14-	=14-	=14-	=14-	=14-	=14-	=14-	=14-	=14-	=14-
!	!	!	!LO:TX:t=P:problem=podwójna kreska taktowa	!	!	!	!	!	!	!	!	!	!	!
0D;;	-nem	-li	0D;;	.	-li	0D	-nem	-li	0d	-nem	-li	.	.	.
=15||-	=15||-	=15||-	=15||-	=15||-	=15||-	=15||-	=15||-	=15||-	=15||-	=15||-	=15||-	=15||-	=15||-	=15||-
*M2/1	*	*	*M2/1	*	*	*M2/1	*	*	*M2/1	*	*	*M2/1	*	*
*met(C|)	*	*	*met(C|)	*	*	*met(C)	*	*	*met(C)	*	*	*met(C)	*	*
1.A	Con-	Ne	1A	Con-	Ne	0r	.	.	1.e	Con-	Ne	1r	.	.
.	.	.	1c	-so-	pa-	.	.	.	.	.	.	1.a	Co[n]-	Ne
2A\	-ſo-	pa-	.	.	.	.	.	.	2e\	-ſo-	pa-	.	.	.
=16-	=16-	=16-	=16-	=16-	=16-	=16-	=16-	=16-	=16-	=16-	=16-	=16-	=16-	=16-
2F\	-la-	.	1d	-la-	-ue-	1.A	Con-	Ne	1f	-la-	-ue-	.	.	.
2.D/	.	.	.	.	.	.	.	.	.	.	.	2a\	-ſo-	pa-
!	!	!	!LO:TX:t=P:problem=kreska pseudotaktowa	!	!	!	!	!	!	!	!	!	!	!
.	.	.	1d	-tur	-as	.	.	.	1f	-tur	-as	2f/	-la-	.
4E\	.	.	.	.	.	.	.	.	.	.	.	.	.	.
4F\	.	.	.	.	.	2A/	-ſo-	.	.	.	.	4d/	.	.
4G\	.	.	.	.	.	.	.	.	.	.	.	4e/	.	.
=17-	=17-	=17-	=17-	=17-	=17-	=17-	=17-	=17-	=17-	=17-	=17-	=17-	=17-	=17-
*	*	*	*lig	*	*	*	*	*	*	*	*	*	*	*
2A\	.	-ue-	1c	Vir-	a-	2F/	-la-	pa-	2r	.	.	4f/	-tur	.
.	.	.	.	.	.	.	.	.	.	.	.	4g/	.	.
2AA/	-tur	-as	.	.	.	2.E/	-tur	.	2e\	Vir-	a-	1a	Vir-	.
!LO:TX:t=P:problem=2E poprawione na 2.E	!	!	!	!	!	!	!	!	!	!	!	!	!	!
2.E\	Vir-	a-	1Bny	.	.	.	.	.	1e	-gi-	-it	.	.	.
.	.	.	.	.	.	4F/	.	-ue-	.	.	.	.	.	.
.	.	.	.	.	.	2G/	Vir-	-as	.	.	.	2g\	-gi-	-ue-
4E/	-gi-	.	.	.	.	.	.	.	.	.	.	.	.	.
*	*	*	*Xlig	*	*	*	*	*	*	*	*	*	*	*
=18-	=18-	=18-	=18-	=18-	=18-	=18-	=18-	=18-	=18-	=18-	=18-	=18-	=18-	=18-
!LO:TX:t=P:problem=4E dopisane nad 1A	!	!	!	!	!	!	!	!	!	!	!	!	!	!
1AA	-ne(m)	-it	1c	-gi-	-it	1E	-gi-	[[Vir-	2e\	-nem	Vir-	0a	-nem	-as
.	.	.	.	.	.	.	.	.	2c/	.	-go	.	.	.
!	!	!	!LO:TX:t=P:problem=kreska pseudotaktowa	!	!	!	!	!	!	!	!	!	!	!
2r	.	.	1d	-ne(m)	Vir-	1D	-nem	-go]]	1f	pa-	gra-	.	.	.
*	*ij	*	*	*	*	*	*	*	*	*	*	*	*	*
2D/	Con-	Vir-	.	.	.	.	.	.	.	.	.	.	.	.
=19-	=19-	=19-	=19-	=19-	=19-	=19-	=19-	=19-	=19-	=19-	=19-	=19-	=19-	=19-
1F	-ſo-	-go,	1c	pa-	-go	2r	.	.	1f	-ui-	-ti-	2r	.	.
.	.	.	.	.	.	1A	pa-	a-	.	.	.	2a\	Con-	a-
1F	-la-	.	1A	-vi-	gra-	.	.	.	2c/	-dam	-as	2cc\	-ſo-	-it
.	.	.	.	.	.	2F/	-ui-	-it	2.c/	ob	ad	1cc\	-la-	Vir-
=20-	=20-	=20-	=20-	=20-	=20-	=20-	=20-	=20-	=20-	=20-	=20-	=20-	=20-	=20-
!	!	!	!LO:TX:t=P:problem=kreska pseudotaktowa	!	!	!	!	!	!	!	!	!	!	!
2C/	-tur	gra-	1c	-da(m)	-t(us)	1G	-dam	Vir-	.	.	.	.	.	.
.	.	.	.	.	.	.	.	.	4d\	.	.	.	.	.
2.C/	Vir-	-tus	.	.	.	.	.	.	4e\	.	.	2g/	-tur	-go
.	.	.	.	.	.	.	.	.	4f\	.	te	.	.	.
*	*	*	*custos:F	*	*	*	*	*	*	*	*	*	*	*
!	!	!	!	!	!	!LO:LB:g=original	!	!	!	!	!	!	!	!
.	.	.	1G	ob	eſt	1E	pa-	-go	2g\	Nun-	.	2cc\	Vir-	a-
4D\	-gi-	.	.	.	.	.	.	.	.	.	.	.	.	.
2E\	-ne(m)	eſt	.	.	.	.	.	.	2e\	-ti-	ſer-	2b\	-gi-	-it
*	*Xij	*	*	*	*	*	*	*	*	*	*	*	*	*
=21-	=21-	=21-	=21-	=21-	=21-	=21-	=21-	=21-	=21-	=21-	=21-	=21-	=21-	=21-
*	*	*	*lig	*	*	*	*	*	*	*	*	*	*	*
!	!	!	!LO:LB:g=original	!	!	!	!	!	!	!	!	!	!	!
2F\	pa-	ſer-	1F	nun-	ad	1A	-ui-	gra-	2c\	-um	-mo	2.a\	-nem	Vir-
2D/	-ui-	-mo	.	.	.	.	.	.	2d\	.	.	.	.	.
.	.	.	.	.	.	.	.	.	.	.	.	8g/L	.	.
.	.	.	.	.	.	.	.	.	.	.	.	8f/J	.	.
1C	-da(m)	.	1G	.	.	2c\	-dam	-tus	1r	.	.	1e	.	-go
.	.	.	.	.	.	2B\	ob	eſt	.	.	.	.	.	.
*	*	*	*Xlig	*	*	*	*	*	*	*	*	*	*	*
=22-	=22-	=22-	=22-	=22-	=22-	=22-	=22-	=22-	=22-	=22-	=22-	=22-	=22-	=22-
*	*	*	*lig	*	*	*	*	*	*	*	*	*	*	*
!	!	!	!	!	!	!	!	!	!	!	!	!LO:TX:t=P:tekst:problem= ob Nuntium poprawione na Pavid(am)	!	!
1D	.	ad	1F	-ti-	te	1A	.	ad	2r	.	.	2d/	Pa-	.
.	.	.	.	.	.	.	.	.	2d\	Vir-	a-	1dd	.	gra-
1AA	ob	te	1E	.	.	1.A	Nun-	te	1e	-gi-	-it	.	.	.
.	.	.	.	.	.	.	.	.	.	.	.	2cc\	-vi-	-tus
*	*	*	*Xlig	*	*	*	*	*	*	*	*	*	*	*
=23-	=23-	=23-	=23-	=23-	=23-	=23-	=23-	=23-	=23-	=23-	=23-	=23-	=23-	=23-
*	*	*	*lig	*	*	*	*	*	*	*	*	*	*	*
1D	nun-	.	1D	-um	ſer-	.	.	.	1f	-nem	Vir-	1dd	-d(am)	eſt
.	.	.	.	.	.	2B\	-ti-	ſer-	.	.	.	.	.	.
!LO:TX:t=P:problem=2AA poprawione na 2.AA	!	!	!LO:TX:t=P:problem=kreska pseudotaktowa	!	!	!	!	!	!LO:LB:g=original	!	!	!LO:LB:g=original	!	!
2.AA/	-ti-	ſer-	1C	.	.	1c	-um	-mo	2.e\	pa-	-go	2r	.	.
.	.	.	.	.	.	.	.	.	.	.	.	2a\	Vir-	[[gra-
!LO:TX:t=P:problem=dopisane 4AA poprawione na 4GG	!	!	!	!	!	!	!	!	!	!	!	!	!	!
4GG/	.	.	.	.	.	.	.	.	4c/	-ui-	gra-	.	.	.
*	*	*	*Xlig	*	*	*	*	*	*	*	*	*	*	*
=24-	=24-	=24-	=24-	=24-	=24-	=24-	=24-	=24-	=24-	=24-	=24-	=24-	=24-	=24-
*custos:D	*	*	*	*	*	*	*	*	*	*	*	*	*	*
1GG	-u(m)	-mo	1G	nun-	-mo	2r	.	.	1d	-dam	-tus	1b-X	-gi-	tus
.	.	.	.	.	.	2G/	ob	Con-	.	.	.	.	.	.
!LO:LB:g=original	!	!	!	!	!	!	!	!	!	!	!	!	!	!
2D/	.	.	1F	-qua(m)	con-	2A/	.	.	1d	.	.	2a\	-nem	eſt]]
2D/	ob	con-	.	.	.	4D/	Nun-	.	.	.	.	2a\	ob	ad
.	.	.	.	.	.	4E/	.	.	.	.	.	.	.	.
=25-	=25-	=25-	=25-	=25-	=25-	=25-	=25-	=25-	=25-	=25-	=25-	=25-	=25-	=25-
*	*	*	*lig	*	*	*	*	*	*	*	*	*	*	*
2.D/	nun-	-ci-	1F	an-	-ci-	4F/	.	.	2A/	ob	ad	2.a\	Nun-	te
.	.	.	.	.	.	4G/	.	.	.	.	.	.	.	.
.	.	.	.	.	.	2A/	.	-ci-	1d	Nun-	te	.	.	.
4C/	.	.	.	.	.	.	.	.	.	.	.	4a\	-ti-	ſer-
1BB-X	-ti-	-pi-	1G	.	.	2F/	.	-pi-	.	.	.	2d/	-um	-mo
!	!	!	!	!	!	!	!	!	!LO:SIC:v:o=2B/	!	!	!	!	!
.	.	.	.	.	.	2D/	.	-es	2B-	-ti-	ſer-	1dd\	Nun-	Con-
*	*	*	*Xlig	*	*	*	*	*	*	*	*	*	*	*
=26-	=26-	=26-	=26-	=26-	=26-	=26-	=26-	=26-	=26-	=26-	=26-	=26-	=26-	=26-
1AA	-um	-es	1A	.	-p[i]-	1.E	.	Fi-	0e	-um	-mo	.	.	.
.	.	.	.	.	.	.	.	.	.	.	.	2cc\	-quam	-ci-
1r	.	.	1G	-te	-es	.	.	.	.	.	.	1bny	an-	-pi-
.	.	.	.	.	.	2E/	-ci-	-li-	.	.	.	.	.	.
=27-	=27-	=27-	=27-	=27-	=27-	=27-	=27-	=27-	=27-	=27-	=27-	=27-	=27-	=27-
*	*	*	*lig	*	*	*	*	*	*	*	*	*	*	*
1D	nun-	con-	1F	au-	fi-	2D/	-um	-um	1r	.	.	2a\	-te	-es
*	*	*	*	*	*	*	*	*ij	*	*	*	*	*	*
.	.	.	.	.	.	1A	Nun-	Con-	.	.	.	1dd	au-	Fi-
1AA	-qua(m)	-ci-	1E	.	.	.	.	.	2r	.	.	.	.	.
.	.	.	.	.	.	2A/	-quam	-ci-	1A/	Nun-	con-	2cc\	-di-	-li-
*	*	*	*Xlig	*	*	*	*	*	*	*	*	*	*	*
=28-	=28-	=28-	=28-	=28-	=28-	=28-	=28-	=28-	=28-	=28-	=28-	=28-	=28-	=28-
2D/	an-	-pi-	1D	.	.	2F/	an-	-pi-	.	.	.	1dd	-tum	-um
2GG/	-te	-es	.	.	.	2G/	-te	-es	2B-X/	.	-ci-	.	.	.
2.AA/	au-	Fi-	1C	-di-	-li-	2.E/	au-	Fi-	2.A/	-quam	-pi-	2r	.	.
.	.	.	.	.	.	.	.	.	.	.	.	1a\	Nun-	Con-
4AA/	-di-	-li-	.	.	.	4E/	-di-	-li-	4A/	an-	-es	.	.	.
=29-	=29-	=29-	=29-	=29-	=29-	=29-	=29-	=29-	=29-	=29-	=29-	=29-	=29-	=29-
1D	-tu(m)	-u(m)	00.D;;	-tum	-um	1F	-tum	.	2A/	-te	.	.	.	.
.	.	.	.	.	.	.	.	.	1d	an-	Fi-	2a\	-quam	-ci-
2r	.	.	.	.	.	1.G	an-	.	.	.	.	1.b-X	an-	-pi-
1GG/	an-	.	.	.	.	.	.	.	2d\	-te	-li-	.	.	.
=30-	=30-	=30-	=30-	=30-	=30-	=30-	=30-	=30-	=30-	=30-	=30-	=30-	=30-	=30-
.	.	.	.	.	.	.	.	.	2.d\	au-	-um	.	.	.
2GG/	-te	Fi-	.	.	.	2G/	-te	-um	.	.	.	2b-\	-te	-es
*	*	*	*	*	*	*	*	*Xij	*	*	*	*	*	*
!	!	!	!	!	!	!	!	!	!LO:TX:t=P:problem=usunięte 1d	!	!	!	!	!
.	.	.	.	.	.	.	.	.	4d\	-di-	.	.	.	.
2GG/	au-	-li-	.	.	.	2.G/	au-	Fi-	0.d;	-tum	.	2.b-\	au-	Fi-
2GG/	-di-	um	.	.	.	.	.	.	.	.	.	.	.	.
.	.	.	.	.	.	4G/	-di-	-li-	.	.	.	4b-\	-di-	-li-
=31-	=31-	=31-	=31-	=31-	=31-	=31-	=31-	=31-	=31-	=31-	=31-	=31-	=31-	=31-
!	!	!	!LO:TX:t=P:problem=podwójna kreska taktowa	!	!	!	!	!	!LO:TX:b:t=Vi	!	!	!	!	!
0D;;	-tum	.	.	.	.	0F#X	-tum	-um	.	.	.	0a	-tum	-um
=32||-	=32||-	=32||-	=32||-	=32||-	=32||-	=32||-	=32||-	=32||-	=32||-	=32||-	=32||-	=32||-	=32||-	=32||-
*M2/1	*	*	*M2/1	*	*	*M2/1	*	*	*M2/1	*	*	*M2/1	*	*
*met(C|)	*	*	*met(C|)	*	*	*met(C)	*	*	*met(C)	*	*	*met(C)	*	*
!	!	!	!	!	!	!	!	!	!LO:TX:a:t=de	!	!	!	!	!
!	!	!	!	!	!	!	!	!	!LO:TX:a:t=3tia Stroffa	!	!	!	!	!
!	!	!	!	!	!	!	!	!	!LO:TX:t=P:problem=3tia Stroffa dopisana na kartce obok	!	!	!	!	!
1D	Fi-	Pec-	1d	Fi-	Pec-	2.A/	Fi-	Pec-	1f	Fi-	Pec-	0a	Fi-	Pec-
.	.	.	.	.	.	4G/	-li-	-ca-	.	.	.	.	.	.
!	!	!	!LO:TX:t=P:problem=kreska pseudotaktowa	!	!	!	!	!	!	!	!	!	!	!
1D	-li-	-ca-	1d	-li-	-ca-	2Fny/	um	-to-	1f	-li-	-ca-	.	.	.
.	.	.	.	.	.	2D/	Al-	-rum	.	.	.	.	.	.
=33-	=33-	=33-	=33-	=33-	=33-	=33-	=33-	=33-	=33-	=33-	=33-	=33-	=33-	=33-
*	*	*	*lig	*	*	*	*	*	*	*	*	*	*	*
4AA/	um	-to-	1c	um	-to-	2.E/	-tiſ-	ſa-	1.e	-um	-to-	1a	-li-	-ca-
4BBny/	.	.	.	.	.	.	.	.	.	.	.	.	.	.
4C/	.	.	.	.	.	.	.	.	.	.	.	.	.	.
4D/	.	.	.	.	.	4F/	-si-	-lu-	.	.	.	.	.	.
4E\	.	.	1B	.	.	1G	-mi	-tem	.	.	.	1g	-um	-to-
4F\	.	.	.	.	.	.	.	.	.	.	.	.	.	.
2G\	al-	-ru(m)	.	.	.	.	.	.	2d\	Al-	-rum	.	.	.
*	*	*	*Xlig	*	*	*	*	*	*	*	*	*	*	*
=34-	=34-	=34-	=34-	=34-	=34-	=34-	=34-	=34-	=34-	=34-	=34-	=34-	=34-	=34-
!	!	!	!LO:TX:t=P:problem=kreska pseudotaktowa	!	!	!	!	!	!	!	!	!LO:LB:g=original	!	!
1F	-tiſ-	Sa-	1c	al-	-rum	2r	.	.	0f	-tiſ-	Sa-	2.a\	al-	-rum
.	.	.	.	.	.	(<1A	et	Mi-	.	.	.	.	.	.
.	.	.	.	.	.	.	.	.	.	.	.	4g/	.	.
*	*	*	*lig	*	*	*	*	*	*	*	*	*	*	*
1D	si-	-lu-	1d	-tiſ-	Sa-	.	.	.	.	.	.	4f/	.	.
.	.	.	.	.	.	.	.	.	.	.	.	4e/	.	.
.	.	.	.	.	.	2F/)	.	-ſe-	.	.	.	1a\	-tiſ-	Sa-
=35-	=35-	=35-	=35-	=35-	=35-	=35-	=35-	=35-	=35-	=35-	=35-	=35-	=35-	=35-
1E	-mi	-te(m)	1B	.	.	2G/	Re-	-ro-	1e	-si-	-lu-	.	.	.
.	.	.	.	.	.	2E/	-gis	-rum	.	.	.	2g/	-si-	-lu-
*	*	*	*Xlig	*	*	*	*	*	*	*	*	*	*	*
!LO:PB:g=original	!	!	!	!	!	!	!	!	!	!	!	!	!	!
1AA	et	Mi-	1c	-si-	-lu-	1E	.	.	1c	-mi	-tem	1a	-mi	-tem
=36-	=36-	=36-	=36-	=36-	=36-	=36-	=36-	=36-	=36-	=36-	=36-	=36-	=36-	=36-
!	!	!	!LO:TX:t=P:problem=kreska pseudotaktowa	!	!	!	!	!	!	!	!	!	!	!
1.D	Re-	-ſe-	1A	-mi	-te(m)	1.F	.	ſo-	1.d	et	Mi-	2r	.	.
.	.	.	.	.	.	.	.	.	.	.	.	1a	et	Mi-
.	.	.	1F	et	Mi-	.	.	.	.	.	.	.	.	.
2D/	-gis	-ro-	.	.	.	2D/	quam	.	2d\	Re-	-ſe-	2a\	Re-	-ſe-
=37-	=37-	=37-	=37-	=37-	=37-	=37-	=37-	=37-	=37-	=37-	=37-	=37-	=37-	=37-
2D/	.	-rum	1D	Re-	-ſe-	2A/	Ma-	-la-	1d	-gis	-ro-	2a\	-gis	-ro-
2GG/	quam	.	.	.	.	4G/	.	.	.	.	.	2bny\	quam	-rum
.	.	.	.	.	.	4F/	.	.	.	.	.	.	.	.
!	!	!	!LO:TX:t=P:problem=kreska pseudotaktowa	!	!	!	!	!	!	!	!	!	!	!
!	!	!	!LO:LB:g=original	!	!	!	!	!	!	!	!	!	!	!
1AA	ma-	So-	1C	-gis	-ro-	1E	.	.	2A/	quam	-rum	2.cc\	Ma-	ſo-
.	.	.	.	.	.	.	.	.	2e\	.	So-	.	.	.
.	.	.	.	.	.	.	.	.	.	.	.	4b\	.	.
=38-	=38-	=38-	=38-	=38-	=38-	=38-	=38-	=38-	=38-	=38-	=38-	=38-	=38-	=38-
2D/	.	-la-	1D	qua(m)	-rum	2F/	xi-	.	1d	Ma-	-la-	4a\	.	.
.	.	.	.	.	.	.	.	.	.	.	.	4g\	.	.
2.F\	.	.	.	.	.	2D/	-mi	.	.	.	.	2.a\	.	.
.	.	.	1F	ma-	So-	1A	.	-men	4c/	.	.	.	.	.
4E\	.	.	.	.	.	.	.	.	4A/	.	.	4g/	.	.
2D/	.	.	.	.	.	.	.	.	4Bny/	.	.	1f/	.	.
.	.	.	.	.	.	.	.	.	4c/	.	.	.	.	.
=39-	=39-	=39-	=39-	=39-	=39-	=39-	=39-	=39-	=39-	=39-	=39-	=39-	=39-	=39-
!	!	!	!	!	!	!LO:LB:g=original	!	!	!	!	!	!	!	!
1C	-xi-	.	1G	-xi-	-la-	2r	.	.	1c	-xi-	.	.	.	.
.	.	.	.	.	.	2c\	DE-	Lap-	.	.	.	2e/	-xi-	-la-
!	!	!	!LO:TX:t=P:problem=kreska pseudotaktowa	!	!	!	!	!	!	!	!	!	!	!
1FF	-mi	-men	1F	-mi	-men	1c	-um	-ſo-	1A	-mi	-men	2f/	-mi	-men
.	.	.	.	.	.	.	.	.	.	.	.	2a\	DE-	lap-
=40-	=40-	=40-	=40-	=40-	=40-	=40-	=40-	=40-	=40-	=40-	=40-	=40-	=40-	=40-
2r	.	.	1F	De-	lap-	2c\	et	-rum	2r	.	.	1a	-um	-ſo-
1F	et	lap-	.	.	.	2c\	ho-	re-	(2A/	DE-	lap-	.	.	.
.	.	.	1G	-um	-ſo-	2.B\	-mi-	-me-	1e)	.	-ſo-	1g	et	-rum
2E\	re-	-ſo-	.	.	.	.	.	.	.	.	.	.	.	.
.	.	.	.	.	.	4B\	-nem	-di-	.	.	.	.	.	.
=41-	=41-	=41-	=41-	=41-	=41-	=41-	=41-	=41-	=41-	=41-	=41-	=41-	=41-	=41-
1F	-gis	-ru(m)	1A	et	-rum	2A/	.	um	2A/	-um	-rum	1f	ho-	re-
.	.	.	.	.	.	1F	DE-	lap-	2A/	et	re-	.	.	.
!	!	!	!	!	!	!	!	!	!LO:LB:g=original	!	!	!	!	!
1C	qua(m)	re-	1G	Ho-	.	.	.	.	2.c/	ho-	-me-	2g/	.	.
.	.	.	.	.	.	2E/	-um	-ſo-	.	.	.	2e/	.	.
.	.	.	.	.	.	.	.	.	4B/	-mi-	-di-	.	.	.
=42-	=42-	=42-	=42-	=42-	=42-	=42-	=42-	=42-	=42-	=42-	=42-	=42-	=42-	=42-
*	*	*	*lig	*	*	*	*	*	*	*	*	*	*	*
2.D/	ma-	-me-	1F	.	re-	2F/	et	-rum	1A	-nem	um	2d/	.	.
.	.	.	.	.	.	2D/	ho-	re-	.	.	.	1dd	.	-me-
4D\	-xi-	-di-	.	.	.	.	.	.	.	.	.	.	.	.
1AA	-mi	u(m)	1E	.	.	2.A/	.	-me-	2r	.	.	.	.	.
.	.	.	.	.	.	.	.	.	2c/	DE-	lap-	2cc\	-mi-	-di-
.	.	.	.	.	.	4G/	.	.	.	.	.	.	.	.
*	*	*	*Xlig	*	*	*	*	*	*	*	*	*	*	*
=43-	=43-	=43-	=43-	=43-	=43-	=43-	=43-	=43-	=43-	=43-	=43-	=43-	=43-	=43-
*	*	*ij	*	*	*	*	*	*	*	*	*	*	*	*
!LO:SIC:v:o=2BB/	!	!	!	!	!	!	!	!	!	!	!	!	!	!
2BB-/	De-	lap-	1D	.	-me-	2F/	.	.	1B-X	um	-ſo-	1dd	-nem	-um
2GG/	-um	-ſo-	.	.	.	2G/	-mi-	-di-	.	.	.	.	.	.
!	!	!	!	!	!	!	!	!	!	!	!	!LO:LB:g=original	!	!
1AA	.	-ru(m)	1C	-mi-	-di-	1E	-nem	um	2.A/	et	-rum	2r	.	.
.	.	.	.	.	.	.	.	.	.	.	.	2a\	DE-	lap-
.	.	.	.	.	.	.	.	.	4G/	.	.	.	.	.
=44-	=44-	=44-	=44-	=44-	=44-	=44-	=44-	=44-	=44-	=44-	=44-	=44-	=44-	=44-
*	*	*	*	*	*	*	*ij	*ij	*	*	*	*	*	*
1D	et	re-	00.D;;	-nem	um	2D/	DE-	lap-	2F/	.	.	1a	-um	-ſo-
.	.	.	.	.	.	4F/	-um	-ſo-	2A/	.	re-	.	.	.
.	.	.	.	.	.	4F/	et	-rum	.	.	.	.	.	.
2GG/	ho-	-me-	.	.	.	2G/	ho-	re-	2.d\	ho-	-me-	2b-X\	et	-rum
2FF/	.	.	.	.	.	2A/	.	.	.	.	.	2a\	ho-	re-
.	.	.	.	.	.	.	.	.	4d\	-mi-	-di-	.	.	.
=45-	=45-	=45-	=45-	=45-	=45-	=45-	=45-	=45-	=45-	=45-	=45-	=45-	=45-	=45-
1GG	-mi-	-di-	.	.	.	2.B\	.	-me-	00d	-nem	-um	1.g	.	-me-
.	.	.	.	.	.	4B\	-mi-	-di-	.	.	.	.	.	.
0.D;;	-nem	u(m)	.	.	.	0.A	-nem	-um	.	.	.	.	.	.
*	*	*Xij	*	*	*	*	*Xij	*Xij	*	*	*	*	*	*
!	!	!	!	!	!	!	!	!	!	!	!	!LO:SIC:v:o=4f/	!	!
.	.	.	.	.	.	.	.	.	.	.	.	4f#/	.	.
.	.	.	.	.	.	.	.	.	.	.	.	4e/	-mi-	-di-
=46-	=46-	=46-	=46-	=46-	=46-	=46-	=46-	=46-	=46-	=46-	=46-	=46-	=46-	=46-
!	!	!	!LO:TX:t=P:problem=kreska pseudotaktowa	!	!	!	!	!	!	!	!	!	!	!
.	.	.	.	.	.	.	.	.	.	.	.	0f#X	-nem	-um
=47||-	=47||-	=47||-	=47||-	=47||-	=47||-	=47||-	=47||-	=47||-	=47||-	=47||-	=47||-	=47||-	=47||-	=47||-
*M2/1	*	*	*M2/1	*	*	*M2/1	*	*	*M2/1	*	*	*M2/1	*	*
*met(C|)	*	*	*met(C|)	*	*	*met(C)	*	*	*met(C)	*	*	*met(C)	*	*
0r	.	.	1D	Et	Ma-	1.d	Et	Ma-	1f	Et	Ma-	1a	Et	Ma-
*	*	*	*lig	*	*	*	*	*	*	*	*	*	*	*
!	!	!	!	!	!	!	!	!	!LO:TX:t=P:problem=2e poprawione na 1e	!	!	!	!	!
.	.	.	1A	lux	-ter	.	.	.	1e	lux	-ter	2a\	.	-ter
.	.	.	.	.	.	2c\	lux	-ter	.	.	.	1a\	.	e-
=48-	=48-	=48-	=48-	=48-	=48-	=48-	=48-	=48-	=48-	=48-	=48-	=48-	=48-	=48-
!	!	!	!LO:TX:t=P:problem=kreska pseudotaktowa	!	!	!	!	!	!	!	!	!	!	!
!	!	!	!LO:TX:a:t=P:problem=♭ above	!	!	!LO:LB:g=original	!	!	!	!	!	!	!	!
1GG	Et	Ma-	1B-X	.	.	0d	be-	e-	2.d\	Be-	e-	.	.	.
.	.	.	.	.	.	.	.	.	.	.	.	2g/	.	-ris
.	.	.	.	.	.	.	.	.	4e\	.	.	.	.	.
*lig	*	*	*Xlig	*	*	*	*	*	*	*	*	*	*	*
*	*	*	*lig	*	*	*	*	*	*	*	*	*	*	*
1D	lux	-ter	1A	be-	e-	.	.	.	2f\	-a-	.	1a	lux	.
!	!	!	!	!	!	!	!	!	!LO:LB:g=original	!	!	!	!	!
.	.	.	.	.	.	.	.	.	1d\	.	-ris	.	.	.
=49-	=49-	=49-	=49-	=49-	=49-	=49-	=49-	=49-	=49-	=49-	=49-	=49-	=49-	=49-
1E	.	.	1G	.	.	2G/	a-	-ris	.	.	.	1r	.	.
.	.	.	.	.	.	2E/	-tiſ-	in-	2c/	.	.	.	.	.
*Xlig	*	*	*Xlig	*	*	*	*	*	*	*	*	*	*	*
*	*	*	*lig	*	*	*	*	*	*	*	*	*	*	*
!LO:LB:g=original	!	!	!	!	!	!	!	!	!	!	!	!	!	!
2.D/	be-	e-	1A	a-	-ris	2.F/	si-	-ta-	1.d	.	in-	2r	.	.
.	.	.	.	.	.	.	.	.	.	.	.	2a\	Be-	in-
4C/	a-	-ris	.	.	.	4E/	.	.	.	.	.	.	.	.
=50-	=50-	=50-	=50-	=50-	=50-	=50-	=50-	=50-	=50-	=50-	=50-	=50-	=50-	=50-
!	!	!	!LO:TX:a:t=P:problem=# above	!	!	!	!	!	!	!	!	!	!	!
!	!	!	!LO:N:acc=#	!	!	!	!	!	!	!	!	!	!	!
1BB	-tiſ-	in-	1Bn	.	.	4D/	.	.	.	.	.	1dd	-a-	-ta-
.	.	.	.	.	.	4C/	.	.	.	.	.	.	.	.
.	.	.	.	.	.	2D/	-ma	-cta	2Bny/	-tiſ-	.	.	.	.
*	*	*	*Xlig	*	*	*	*	*	*	*	*	*	*	*
*	*	*	*lig	*	*	*	*	*	*	*	*	*	*	*
1AA	-si-	-ta-	1c	-tiſ-	in-	1E	tu-	Cae-	1e	-si-	-ta-	4cc\	-tiſ-	.
.	.	.	.	.	.	.	.	.	.	.	.	4bny\	.	.
.	.	.	.	.	.	.	.	.	.	.	.	4a\	.	.
.	.	.	.	.	.	.	.	.	.	.	.	4g\	.	.
=51-	=51-	=51-	=51-	=51-	=51-	=51-	=51-	=51-	=51-	=51-	=51-	=51-	=51-	=51-
1D	-ma	-cta	1A	.	.	2F/	-i	-li	1d	-ma	-cta	1fny	-si-	-cta
.	.	.	.	.	.	1D	Cor-	por-	.	.	.	.	.	.
*	*	*	*Xlig	*	*	*	*	*	*	*	*	*	*	*
1GG	re-	cae-	1B-X	si-	-ta-	.	.	.	2r	.	.	1g	-ma	.
.	.	.	.	.	.	2D/	-dis	-ta	2d\	tu-	Cae-	.	.	.
=52-	=52-	=52-	=52-	=52-	=52-	=52-	=52-	=52-	=52-	=52-	=52-	=52-	=52-	=52-
!	!	!	!LO:TX:t=P:problem=kreska pseudotaktowa	!	!	!	!	!	!	!	!	!	!	!
2C/	-ple	-li	1G	-ma	-cta	2E/	in-	iam	1c	-i	-li	1r	.	.
2E\	cor-	por-	.	.	.	1G	-ti-	fa-	.	.	.	.	.	.
!	!	!	!LO:LB:g=original	!	!	!	!	!	!	!	!	!	!	!
1D	-dis	-ta	1A	re-	Cae-	.	.	.	1d	Cor-	por-	2r	.	.
.	.	.	.	.	.	2F/	-ma	-cta	.	.	.	1a\	tu-	Cae-
=53-	=53-	=53-	=53-	=53-	=53-	=53-	=53-	=53-	=53-	=53-	=53-	=53-	=53-	=53-
!	!	!	!LO:TX:t=P:problem=kreska pseudotaktowa	!	!	!	!	!	!	!	!	!	!	!
2.GG/	in-	ia(m)	1Bny	-ple	-li	1G	.	.	1d	-dis	-ta	.	.	.
.	.	.	.	.	.	.	.	.	.	.	.	2g/	-i	-li
4GG/	-ti-	fa-	.	.	.	.	.	.	.	.	.	.	.	.
*	*	*	*lig	*	*	*	*	*	*	*	*	*lig	*	*
!	!	!	!	!	!	!	!	!	!	!	!	!LO:LB:g=original	!	!
1D	-ma	-cta	1A	cor-	por-	2r	.	.	1.d	in-	iam	1a	Cor-	por-
.	.	.	.	.	.	2F/	ob-	fun-	.	.	.	.	.	.
=54-	=54-	=54-	=54-	=54-	=54-	=54-	=54-	=54-	=54-	=54-	=54-	=54-	=54-	=54-
2r	.	.	1G	.	.	2G/	-um-	-dens	.	.	.	1b	.	.
2GG/	Cor-	por-	.	.	.	2.D/	-bra-	Re-	2d\	-ti-	fac-	.	.	.
*	*	*	*Xlig	*	*	*	*	*	*	*	*	*Xlig	*	*
!	!	!	!LO:TX:t=P:problem=kreska pseudotaktowa	!	!	!	!	!	!	!	!	!	!	!
1.D	-dis	-ta	1A	-diſ	-ta	.	.	.	1d	-ma	-ta	2a\	-dis	-ta
.	.	.	.	.	.	4E/	.	.	.	.	.	.	.	.
.	.	.	.	.	.	4F/	.	.	.	.	.	2.a\	in-	iam
.	.	.	.	.	.	4G/	.	.	.	.	.	.	.	.
=55-	=55-	=55-	=55-	=55-	=55-	=55-	=55-	=55-	=55-	=55-	=55-	=55-	=55-	=55-
.	.	.	1F	in-	ia(m)	1A	-bit	-gem	2r	.	.	.	.	.
.	.	.	.	.	.	.	.	.	.	.	.	4g/	.	.
2D/	in-	iam	.	.	.	.	.	.	2A/	ob-	iam	1f	-ti-	fac-
1C	-ti-	fa-	1G	-ti-	fa-	2r	.	.	2.c/	-um-	fa-	.	.	.
.	.	.	.	.	.	2A/	ob-	fun-	.	.	.	2e/	-ma	-ta
.	.	.	.	.	.	.	.	.	4B/	-bra-	.	.	.	.
=56-	=56-	=56-	=56-	=56-	=56-	=56-	=56-	=56-	=56-	=56-	=56-	=56-	=56-	=56-
!	!	!	!LO:TX:t=P:problem=kreska pseudotaktowa	!	!	!	!	!	!	!	!	!	!	!
1FF	-ma	-cta	1F	-ma	-cta	1.c	-um-	.	1A	-bit	-cta	2f/	.	.
.	.	.	.	.	.	.	.	.	.	.	.	2a\	ob-	fun-
2r	.	.	1F	ob-	fun-	.	.	.	2r	.	.	2a\	-um-	-dens
1F\	tu-	fun-	.	.	.	2c\	-bra-	-dens	2A/	ob-	fun-	2a\	-bra-	Re-
=57-	=57-	=57-	=57-	=57-	=57-	=57-	=57-	=57-	=57-	=57-	=57-	=57-	=57-	=57-
.	.	.	1G	-um-	-dens	1B	-bit	Re-	1e	-um-	-dens	1g	-bit	-gem
2E\	-o-	-dens	.	.	.	.	.	.	.	.	.	.	.	.
1F	-rum	re-	1A	-bra-	.	2A/	Vi-	.	2.c/	-bra-	.	2r	.	.
.	.	.	.	.	.	4G/	.	.	.	.	.	1b\	ob-	fun-
.	.	.	.	.	.	4F/	.	.	4d\	-bit	.	.	.	.
=58-	=58-	=58-	=58-	=58-	=58-	=58-	=58-	=58-	=58-	=58-	=58-	=58-	=58-	=58-
!	!	!	!	!	!	!	!	!LO:MO:mod=-gem	!	!	!	!	!	!
!	!	!	!	!	!	!LO:LB:g=original	!	!	!	!	!	!	!	!
1C	fi-	-ge(m)	1G	-bit	re-	2E/	.	-gen	0e	.	Re-	.	.	.
.	.	.	.	.	.	2.C/	.	glo-	.	.	.	2.cc\	-um-	-dens
4AA/	-de-	glo-	1c	.	-gem	.	.	.	.	.	.	.	.	.
4BB/	.	.	.	.	.	4D/	.	.	.	.	.	4b\	.	.
4C/	.	.	.	.	.	4E/	.	.	.	.	.	1a\	-bra-	Re-
4D/	.	.	.	.	.	4F/	.	.	.	.	.	.	.	.
=59-	=59-	=59-	=59-	=59-	=59-	=59-	=59-	=59-	=59-	=59-	=59-	=59-	=59-	=59-
*	*	*	*lig	*	*	*	*	*	*	*	*	*	*	*
1E	.	.	1B#X	gra-	glo-	1G	.	.	1.e	Vi-	-gem	.	.	.
.	.	.	.	.	.	.	.	.	.	.	.	2g/	-bit	-gem
2C/	.	.	1A	.	.	2E/	.	.	.	.	.	1a	.	.
2D/	.	.	.	.	.	2F/	.	.	1d\	-ſi-	glo-	.	.	.
*	*	*	*Xlig	*	*	*	*	*	*	*	*	*	*	*
=60-	=60-	=60-	=60-	=60-	=60-	=60-	=60-	=60-	=60-	=60-	=60-	=60-	=60-	=60-
1BB	-li-	-ri-	1G	-ti-	-ri-	1D	-sie-	-ri-	.	.	.	1.dd	Vi-	glo-
.	.	.	.	.	.	.	.	.	2B/	-e-	-ri-	.	.	.
!	!	!	!LO:TX:t=P:problem=podwójna kreska taktowa	!	!	!	!	!	!	!	!	!	!	!
0.AA;;	-u(m)	-ae	0.A;;	-a	-ae	0.E	-ra	-ae	0.e	-ra	-ae	.	.	.
!	!	!	!	!	!	!	!	!	!	!	!	!LO:SIC:v:o=4cc\	!	!
.	.	.	.	.	.	.	.	.	.	.	.	4cc#\	-ſi-	-ri-
.	.	.	.	.	.	.	.	.	.	.	.	4b\	-e-	-ae
=61-	=61-	=61-	=61-	=61-	=61-	=61-	=61-	=61-	=61-	=61-	=61-	=61-	=61-	=61-
.	.	.	.	.	.	.	.	.	.	.	.	0cc#X	-ra	.
=62||-	=62||-	=62||-	=62||-	=62||-	=62||-	=62||-	=62||-	=62||-	=62||-	=62||-	=62||-	=62||-	=62||-	=62||-
*M2/1	*	*	*M2/1	*	*	*M2/1	*	*	*M2/1	*	*	*M2/1	*	*
*met(C|)	*	*	*met(C|)	*	*	*met(C)	*	*	*met(C)	*	*	*met(C)	*	*
!	!	!	!	!	!	!	!	!	!LO:LB:g=original	!	!	!	!	!
1D	Quem	Ut	1d	Quem	Ut	1D	Quem	Ut	2.f\	Quem	Ut	0a	Quem	Ut
.	.	.	.	.	.	.	.	.	4e\	.	.	.	.	.
!	!	!	!LO:TX:t=P:problem=kreska pseudotaktowa	!	!	!	!	!	!	!	!	!	!	!
2D/	no-	pur-	1d	no-	pur-	1F	no-	pur-	4d\	.	.	.	.	.
.	.	.	.	.	.	.	.	.	4A,</	.	.	.	.	.
!LO:LB:g=original	!	!	!	!	!	!	!	!	!	!	!	!	!	!
2D/	-bis	-ga-	.	.	.	.	.	.	1d\	No-	pur-	.	.	.
=63-	=63-	=63-	=63-	=63-	=63-	=63-	=63-	=63-	=63-	=63-	=63-	=63-	=63-	=63-
1E	con-	-tis	1G	-bis	-ga-	2G/	-bis	-ga-	.	.	.	1g	No-	pur-
.	.	.	.	.	.	2E/	con-	-tis	2c\	-bis	-ga-	.	.	.
2D/	-ci-	ſor-	1A	Con-	-tis	2F/	-ci-	ſor-	2d\	Con-	-tis	2f/	-bis	-ga-
!	!	!	!	!	!	!	!	!	!	!	!	!LO:LB:g=original	!	!
2AA/	-li-	-di-	.	.	.	2E/	-li-	-di-	2e\	-ci-	ſor-	2.ccny\	Con-	-tis
=64-	=64-	=64-	=64-	=64-	=64-	=64-	=64-	=64-	=64-	=64-	=64-	=64-	=64-	=64-
!	!	!	!LO:LB:g=original	!	!	!	!	!	!	!	!	!	!	!
1AA	-a	-b(us)	1c	-ci-	Sor-	1A	-a	-bus	2e\	-li-	-di-	.	.	.
.	.	.	.	.	.	.	.	.	.	.	.	4b\	.	.
.	.	.	.	.	.	.	.	.	2e\	-a	-bus	1a	-ci-	ſor-
0r	.	.	1Bny	-li-	-di-	2r	.	.	2.d\	gra-	fru-	.	.	.
.	.	.	.	.	.	1d\	gra-	fru-	.	.	.	2g/	-li-	-di-
.	.	.	.	.	.	.	.	.	4e\	-ti-	-a-	.	.	.
=65-	=65-	=65-	=65-	=65-	=65-	=65-	=65-	=65-	=65-	=65-	=65-	=65-	=65-	=65-
!	!	!	!LO:TX:t=P:problem=kreska pseudotaktowa	!	!	!	!	!	!	!	!	!	!	!
.	.	.	1A,<	-a	-b(us)	.	.	.	2f\	-a-	-mur	1a	-a	-bus
.	.	.	.	.	.	2c\	-ti-	-a-	2e\	-m(us)	.	.	.	.
1D	gra-	fru-	1A	gra-	Fru-	2d\	-a-	-mur	2.f\	im-	Cae-	2r	.	.
.	.	.	.	.	.	2D/	-m(us)	Cae-	.	.	.	1a\	gra-	fru-
.	.	.	.	.	.	.	.	.	4e\	.	.	.	.	.
=66-	=66-	=66-	=66-	=66-	=66-	=66-	=66-	=66-	=66-	=66-	=66-	=66-	=66-	=66-
1GG	-ti-	-a-	1B-X	-ti-	-a-	2.D/	im-	-le-	4d\	.	.	.	.	.
.	.	.	.	.	.	.	.	.	4c\	.	.	.	.	.
.	.	.	.	.	.	.	.	.	2d\	.	.	2g/	-ti-	-a-
.	.	.	.	.	.	4E/	-pe-	-ſti-	.	.	.	.	.	.
*	*	*	*lig	*	*	*	*	*	*	*	*	*	*	*
1D	-a-	-mur	1A	-am-	-mur	1F	-tra	-bus	2A/	.	.	2a\	-a-	-mur
.	.	.	.	.	.	.	.	.	1d\	.	-le-	2f/	-m(us)	in
=67-	=67-	=67-	=67-	=67-	=67-	=67-	=67-	=67-	=67-	=67-	=67-	=67-	=67-	=67-
1E	-m(us)	Cae-	1G	.	.	1r	.	.	.	.	.	1g	im-	Cae-
.	.	.	.	.	.	.	.	.	2c/	-pe-	-ſti-	.	.	.
*	*	*	*Xlig	*	*	*	*	*	*	*	*	*	*	*
!	!	!	!LO:TX:t=P:problem=kreska pseudotaktowa	!	!	!	!	!	!	!	!	!	!	!
0D	im-	-le-	1A	-(us)	Cae-	4D/	im-	Cae-	1d	-tra	-bus	4f/	-pe-	-le-
.	.	.	.	.	.	4E/	.	.	.	.	.	4g/	.	.
.	.	.	.	.	.	4F/	.	.	.	.	.	4a\	.	.
.	.	.	.	.	.	4G/	.	.	.	.	.	4b\	.	.
=68-	=68-	=68-	=68-	=68-	=68-	=68-	=68-	=68-	=68-	=68-	=68-	=68-	=68-	=68-
!	!	!	!	!	!	!LO:LB:g=original	!	!	!	!	!	!	!	!
.	.	.	1F	im-	-le-	2A\	.	.	0r	.	.	4a\	.	.
.	.	.	.	.	.	.	.	.	.	.	.	4g\	.	.
.	.	.	.	.	.	2B\	.	.	.	.	.	1f	.	-ſti-
1C	-pe-	-ſti-	1G	-pe-	-ſti-	1.c	.	-le-	.	.	.	.	.	.
.	.	.	.	.	.	.	.	.	.	.	.	2e/	-tra	-bus
=69-	=69-	=69-	=69-	=69-	=69-	=69-	=69-	=69-	=69-	=69-	=69-	=69-	=69-	=69-
!	!	!	!LO:TX:t=P:problem=kreska pseudotaktowa	!	!	!	!	!	!	!	!	!	!	!
0FF	-tra	-b(us)	1F,<	-tra	-b(us)	.	.	.	2r	.	.	2f/	.	fru-
.	.	.	.	.	.	2c\	-pe-	-ſti-	2f\	Mi-	in	1a	gra-	-a-
.	.	.	1F	mi-	in	1c	-tra	-bus	2f\	-ſe-	Cae-	.	.	.
.	.	.	.	.	.	.	.	.	4e\	-ris	-le-	2a\	-ti-	-mur
.	.	.	.	.	.	.	.	.	4d\	.	.	.	.	.
=70-	=70-	=70-	=70-	=70-	=70-	=70-	=70-	=70-	=70-	=70-	=70-	=70-	=70-	=70-
!	!	!	!	!	!	!	!	!	!LO:LB:g=original	!	!	!	!	!
1r	.	.	1G	-ſe-	Cae-	1r	.	.	2c/	Mor-	-sti	2g/	-a-	in
.	.	.	.	.	.	.	.	.	1d	-ta-	cu-	2f/	-m(us)	Cae-
!	!	!	!LO:TX:t=P:problem=kreska pseudotaktowa	!	!	!	!	!	!	!	!	!	!	!
2r	.	.	1A	-ris	-le-	2r	.	.	.	.	.	2e/	im-	-le-
(>2AA/	mi-	in	.	.	.	1A\	Mi-	in	2c/	-li-	-ri-	2e/	-pe-	-ſti-
=71-	=71-	=71-	=71-	=71-	=71-	=71-	=71-	=71-	=71-	=71-	=71-	=71-	=71-	=71-
1BB-X)	.	.	1D	mor-	-ſti	.	.	.	1d	-bus	-a	2d/	-tra	-bus
.	.	.	.	.	.	2G/	-ſe-	Cae-	.	.	.	1dd	Miſ-	in
*	*	*	*lig	*	*	*	*	*	*	*	*	*	*	*
1AA	-ſe-	cae-	1E	-ta-	Cu-	2A/	-ris	-le-	1r	.	.	.	.	.
.	.	.	.	.	.	2.A/	mor-	-ſti	.	.	.	2cc\	.	.
=72-	=72-	=72-	=72-	=72-	=72-	=72-	=72-	=72-	=72-	=72-	=72-	=72-	=72-	=72-
1D	-ris	-le-	1F	.	.	.	.	.	1d	Mi-	in	1a	-e-	Cae-
.	.	.	.	.	.	4G/	.	.	.	.	.	.	.	.
.	.	.	.	.	.	4F/	.	.	.	.	.	.	.	.
.	.	.	.	.	.	4E/	.	.	.	.	.	.	.	.
*	*	*	*Xlig	*	*	*	*	*	*	*	*	*	*	*
1GG	mor-	-ſti	1G	.	.	2.D/	.	Cu-	2d\	-ſe-	Cae-	1b	-ris	-le-
.	.	.	.	.	.	.	.	.	2d\	-ris	-le-	.	.	.
.	.	.	.	.	.	4E/	.	.	.	.	.	.	.	.
=73-	=73-	=73-	=73-	=73-	=73-	=73-	=73-	=73-	=73-	=73-	=73-	=73-	=73-	=73-
*	*	*	*lig	*	*	*	*	*	*	*	*	*	*	*
!	!	!	!	!	!	!	!	!	!	!	!	!LO:PB:g=original	!	!
1D	-ta-	.	1F	.	.	4F/	.	.	2d\	.	-ſti	2a\	Mor-	-sti
.	.	.	.	.	.	4G/	.	.	.	.	.	.	.	.
.	.	.	.	.	.	4A/	.	.	2.A/	mor-	Cu-	1dd	-ta-	Cu-
.	.	.	.	.	.	4D/	.	.	.	.	.	.	.	.
1AA	.	Cu-	1E	.	.	2.A/	.	.	.	.	.	.	.	.
.	.	.	.	.	.	.	.	.	4B/	-ta-	.	.	.	.
.	.	.	.	.	.	.	.	.	2c/	.	.	2cc\	-li-	-ri-
.	.	.	.	.	.	4G/	.	.	.	.	.	.	.	.
*	*	*	*Xlig	*	*	*	*	*	*	*	*	*	*	*
=74-	=74-	=74-	=74-	=74-	=74-	=74-	=74-	=74-	=74-	=74-	=74-	=74-	=74-	=74-
*	*	*	*lig	*	*	*	*	*	*	*	*	*	*	*
2BB-X/	.	.	1D	-li-	-ri-	2F/	.	.	1B-X	-li-	-ri-	1dd	-bus	-a
2GG/	-li-	-ri-	.	.	.	2G/	-ta-	.	.	.	.	.	.	.
1AA	-b(us)	-a	1C	.	.	1E	-li-	-ri-	1A	-bus	-a	2r	.	.
.	.	.	.	.	.	.	.	.	.	.	.	1a\	Mi-	in
*	*	*	*Xlig	*	*	*	*	*	*	*	*	*	*	*
=75-	=75-	=75-	=75-	=75-	=75-	=75-	=75-	=75-	=75-	=75-	=75-	=75-	=75-	=75-
!	!	!	!	!	!	!LO:TX:t=P:problem=t. 75-77 - usunięty tekst 1. zwr.	!	!	!	!	!	!	!	!
2r	.	.	000D;;	-buſ	-a	2D/	-bus	-a	2F/	.	.	.	.	.
*	*	*	*	*	*	*	*	*ij	*	*	*	*	*	*
1D	mi-	in	.	.	.	1A	[[Al-	Cae-	1f	Mor-	Cu-	2a\	-ſe-	Cae-
.	.	.	.	.	.	.	.	.	.	.	.	2f/	-ris	-le-
2D/	-ſe-	cae-	.	.	.	2A/	-le-	-le-	2d\	.	.	2f/	mor-	-ſti
=76-	=76-	=76-	=76-	=76-	=76-	=76-	=76-	=76-	=76-	=76-	=76-	=76-	=76-	=76-
2GG/	-ris	-le-	.	.	.	2G/	-lu-	-ſti	2.d\	-ta-	-ri-	1.b-X	-ta-	Cu-
2GG/	mor-	-ſti	.	.	.	2G/	-ia]]	Cu-	.	.	.	.	.	.
.	.	.	.	.	.	.	.	.	4d\	-li-	-a	.	.	.
2.GG/	-ta-	Cu-	.	.	.	1.G	.	-ri-	1%5d	-bus	.	.	.	.
.	.	.	.	.	.	.	.	.	.	.	.	2b-\	-li-	-ri-
4GG/	-li-	-ri-	.	.	.	.	.	.	.	.	.	.	.	.
=77-	=77-	=77-	=77-	=77-	=77-	=77-	=77-	=77-	=77-	=77-	=77-	=77-	=77-	=77-
00D;;	-b(us)	-a	.	.	.	.	.	.	.	.	.	00a	-bus	-a
!	!	!	!	!	!	!LO:SIC:v:o=4F/	!	!	!	!	!	!	!	!
.	.	.	.	.	.	4F#/	.	.	.	.	.	.	.	.
.	.	.	.	.	.	4E/	.	.	.	.	.	.	.	.
.	.	.	.	.	.	0.F#X	.	-a	.	.	.	.	.	.
*	*	*	*	*	*	*	*	*Xij	*	*	*	*	*	*
=78-	=78-	=78-	=78-	=78-	=78-	=78-	=78-	=78-	=78-	=78-	=78-	=78-	=78-	=78-
.	.	.	.	.	.	.	.	.	.	.	.	.	.	.
=79||-	=79||-	=79||-	=79||-	=79||-	=79||-	=79||-	=79||-	=79||-	=79||-	=79||-	=79||-	=79||-	=79||-	=79||-
*k[b-e-]	*	*	*k[b-]	*	*	*k[b-]	*	*	*k[b-]	*	*	*k[b-]	*	*
*M2/1	*	*	*M2/1	*	*	*M2/1	*	*	*M2/1	*	*	*M2/1	*	*
*met(C|)	*	*	*met(C|)	*	*	*met(C)	*	*	*met(C)	*	*	*met(C)	*	*
!LO:LB:g=original	!	!	!	!	!	!LO:PB:g=original	!	!	!	!	!	!	!	!
1D	Al-	.	1F	Al-	.	0r	.	.	2.f\	Al-	.	2.dd\	Al-	.
.	.	.	.	.	.	.	.	.	4e\	.	.	4cc\	.	.
*	*	*	*lig	*	*	*	*	*	*	*	*	*	*	*
!	!	!	!LO:LB:g=original	!	!	!	!	!	!	!	!	!	!	!
1E-	.	.	1G	-le-	.	.	.	.	4d\	.	.	4b-\	.	.
.	.	.	.	.	.	.	.	.	4c\	.	.	4a\	.	.
.	.	.	.	.	.	.	.	.	2B-/	.	.	1g\	.	.
=80-	=80-	=80-	=80-	=80-	=80-	=80-	=80-	=80-	=80-	=80-	=80-	=80-	=80-	=80-
!	!	!	!	!	!	!	!	!	!LO:LB:g=original	!	!	!	!	!
2.D/	-le-	.	1A	.	.	2r	.	.	2d\	-le-	.	.	.	.
.	.	.	.	.	.	1D	Al-	.	1d	-lu-	.	2f/	.	.
4C/	.	.	.	.	.	.	.	.	.	.	.	.	.	.
*	*	*	*Xlig	*	*	*	*	*	*	*	*	*	*	*
*	*	*	*lig	*	*	*	*	*	*	*	*	*lig	*	*
2BB-/	.	.	1B-	.	.	.	.	.	.	.	.	1g	-le-	.
2GG/	.	.	.	.	.	1G/	-le-	.	1d\	-ia	.	.	.	.
=81-	=81-	=81-	=81-	=81-	=81-	=81-	=81-	=81-	=81-	=81-	=81-	=81-	=81-	=81-
1D	-lu-	.	1A	.	.	.	.	.	.	.	.	1a	.	.
*	*	*	*	*	*	*	*	*	*	*ij	*	*	*	*
.	.	.	.	.	.	2F/	-lu-	.	2f\	Al-	.	.	.	.
*	*	*	*Xlig	*	*	*	*	*	*	*	*	*Xlig	*	*
*	*	*	*lig	*	*	*	*	*	*	*	*	*	*	*
2GG/	ia	.	1B-	-lu-	.	2G/	-ia	.	1d	-le-	.	2.g\	.	.
*	*ij	*	*	*	*	*	*ij	*	*	*	*	*	*	*
2G\	Al-	.	.	.	.	1G/	Al-	.	.	.	.	.	.	.
.	.	.	.	.	.	.	.	.	.	.	.	4a\	.	.
=82-	=82-	=82-	=82-	=82-	=82-	=82-	=82-	=82-	=82-	=82-	=82-	=82-	=82-	=82-
2E-\	-le-	.	1G	.	.	.	.	.	2e-X\	.	.	2b-\	.	.
2C/	.	.	.	.	.	2E-X/	-le-	.	4f\	.	.	2cc\	.	.
.	.	.	.	.	.	.	.	.	4g\	.	.	.	.	.
*	*	*	*Xlig	*	*	*	*	*	*	*	*	*	*	*
!	!	!	!	!	!	!	!	!	!	!	!	!LO:LB:g=original	!	!
1D	-lu-	.	1F	.	.	2F/	-lu-	.	2f\	.	.	1a	-lu-	.
.	.	.	.	.	.	2D/	-ia	.	1d\	-lu-	.	.	.	.
*	*	*	*	*	*	*	*Xij	*	*	*	*	*	*	*
=83-	=83-	=83-	=83-	=83-	=83-	=83-	=83-	=83-	=83-	=83-	=83-	=83-	=83-	=83-
1GG	ia	.	000G;;	-ia	.	1D	Al-	.	.	.	.	2g\	-ia	.
*	*	*	*	*	*	*	*	*	*	*	*	*	*ij	*
.	.	.	.	.	.	.	.	.	2d\	-ia	.	2.dd\	Al-	.
2r	.	.	.	.	.	2.d\	-le-	.	2r	.	.	.	.	.
.	.	.	.	.	.	.	.	.	.	.	.	4cc\	.	.
2.G\	Al-	.	.	.	.	.	.	.	2d\	Al-	.	4b-\	.	.
.	.	.	.	.	.	4c\	.	.	.	.	.	4a\	.	.
=84-	=84-	=84-	=84-	=84-	=84-	=84-	=84-	=84-	=84-	=84-	=84-	=84-	=84-	=84-
.	.	.	.	.	.	4B-\	.	.	2.d\	-le-	.	2g\	.	.
4F\	.	.	.	.	.	4A\	.	.	.	.	.	.	.	.
4E-\	.	.	.	.	.	2.G/	.	.	.	.	.	2b-\	-le-	.
4D\	.	.	.	.	.	.	.	.	4c/	.	.	.	.	.
2C/	.	.	.	.	.	.	.	.	4B-/	.	.	2cc\	.	.
.	.	.	.	.	.	4F/	.	.	4A/	.	.	.	.	.
2BB-/	-le-	.	.	.	.	2D/	.	.	1d\	-lu-	.	2dd\	.	.
=85-	=85-	=85-	=85-	=85-	=85-	=85-	=85-	=85-	=85-	=85-	=85-	=85-	=85-	=85-
1C	-lu-	.	.	.	.	1Eny	-lu-	.	.	.	.	2g/	.	.
.	.	.	.	.	.	.	.	.	2c/	.	.	1cc	-lu-	.
0.GG;;	-ia	.	.	.	.	0.D	-ia	.	0.d	-ia	.	.	.	.
*	*Xij	*	*	*	*	*	*	*	*	*Xij	*	*	*	*
!	!	!	!	!	!	!	!	!	!	!	!	!LO:SIC:v:o=4b-\	!	!
.	.	.	.	.	.	.	.	.	.	.	.	4bn\	.	.
.	.	.	.	.	.	.	.	.	.	.	.	4a\	.	.
=86-	=86-	=86-	=86-	=86-	=86-	=86-	=86-	=86-	=86-	=86-	=86-	=86-	=86-	=86-
!	!	!	!LO:TX:t=P:problem=podwójna kreska taktowa	!	!	!	!	!	!	!	!	!LO:TX:a:t=Communio.\nSequit	!	!
!LO:TX:a:t=Communio	!	!	!LO:TX:a:t=Commu\nnio\naltus.	!	!	!LO:TX:a:t=Communio\nSequit	!	!	!LO:TX:a:t=Communio\nSequit	!	!	!LO:N:acc=#	!	!
.	.	.	.	.	.	.	.	.	.	.	.	0bn	-ia	.
*	*	*	*	*	*	*	*	*	*	*	*	*	*Xij	*
=-	=-	=-	=-	=-	=-	=-	=-	=-	=-	=-	=-	=-	=-	=-
*-	*-	*-	*-	*-	*-	*-	*-	*-	*-	*-	*-	*-	*-	*-
!!!system-decoration: [(s1,s2,s3,s4,s5)]
!!!RDF**kern: < = below
!!!RDF**kern: > = above
!!!ENC: Marta Chmielewska
!!!END: 2021-08-05
!!!ENC: Katarzyna Serwa
!!!END: 2021-04-08
